lib/brands/icons/google-domains.svg

<svg xmlns="http://www.w3.org/2000/svg" fill="none" aria-hidden="true" viewBox="0 0 48 48"><g id="google-domains-Icon"><g id="Group"><path id="Vector" fill="#4285F4" d="M40.7554 7.22552C41.4318 7.22552 42 7.76662 42 8.47005C42 8.63238 41.9729 8.7947 41.8917 8.95703L29.3383 38.9608C28.8513 40.0701 27.7691 40.7735 26.5787 40.7735H18.0023C17.326 40.8005 16.7578 40.2595 16.7578 39.5831C16.7578 39.4208 16.7849 39.2314 16.839 39.0961L17.813 36.7423L19.9503 24.243L26.1729 16.6677L29.3654 9.0382C29.8523 7.92895 30.7181 7.22552 31.9356 7.22552L40.7554 7.22552Z"/><path id="Vector_2" fill="#FBBC04" d="M26.2541 16.5324C21.5736 11.906 14.0253 11.9872 9.426 16.6677C4.82668 21.3482 4.85374 28.8694 9.53422 33.4958C11.7257 35.6602 14.6746 36.8776 17.7589 36.9317C17.7859 36.8506 23.5216 27.8413 23.5216 27.8413L26.2541 16.5324V16.5324Z"/><path id="Vector_3" fill="#EA4335" d="M26.254 16.5323L17.7588 36.9046H18.0564C24.6037 36.8505 29.8793 31.4937 29.8523 24.9464C29.8252 21.781 28.5266 18.7508 26.254 16.5323V16.5323Z"/></g></g></svg>

<svg xmlns="http://www.w3.org/2000/svg" fill="none" aria-hidden="true" viewBox="0 0 48 48"><path fill="#4285F4" d="M40.755 7.226c.677 0 1.245.54 1.245 1.244 0 .162-.027.325-.108.487L29.338 38.961a3.013 3.013 0 0 1-2.76 1.813h-8.576a1.196 1.196 0 0 1-1.244-1.19c0-.163.027-.353.081-.488l.974-2.354 2.137-12.499 6.223-7.575 3.192-7.63c.487-1.109 1.353-1.812 2.57-1.812h8.82Z"/><path fill="#FBBC04" d="M26.254 16.532c-4.68-4.626-12.229-4.545-16.828.136-4.6 4.68-4.572 12.201.108 16.828a11.988 11.988 0 0 0 8.225 3.436c.027-.081 5.763-9.09 5.763-9.09l2.732-11.31Z"/><path fill="#EA4335" d="M26.254 16.532 17.76 36.905h.297c6.548-.055 11.823-5.411 11.796-11.959a11.912 11.912 0 0 0-3.598-8.414Z"/></svg>
